X:1
T:Gold Saucer
T:Gold Saucer
T:Final Fantasy VII
%%score { 1 | 2 }
L:1/8
Q:1/4=104
M:4/4
K:D
V:1 treble nm="Piano" snm="Pno."
V:2 bass 
V:1
|: .D.G F(G/A/) .B.G A/B/=c/e/ | .d.G.d.G A/G/F/G/ .AE | .D.G F(G/A/) .B.G AB/=c/ | %3
 .d.G.e.G B/A/G/F/ G2 :| F/G/A/B/ .Ad ce AB/c/ | !tenuto!d!tenuto!B!tenuto!A!tenuto!G FE/G/ FD | %6
 CD E>D EF G>F | GA B/A/G/F/ E/F/G/F/ E2 | F/G/A/B/ Ad ce AB/c/ | %9
 !tenuto!d!tenuto!B!tenuto!A!tenuto!G F^G A2 | EE/^D/ E/F/G/A/ B/^A/B/=c/ B/=A/G/F/ | %11
 E/F/G/B/ A/G/F/D/ E/F/G/F/ EF | GG/F/ G/A/B/=c/ d/^c/d/e/ d/=c/B/A/ | %13
 G/F/E/D/ F/E/F/D/ G/F/G/B/ A/G/B,/D/ | EE/^D/ E/F/G/A/ B/^A/B/=c/ B/=A/G/F/ | %15
 E/F/G/B/ A/G/F/D/ E/F/G/F/ EF | GG/F/ G/A/B/=c/ d/^c/d/e/ d/=c/B/A/ | %17
 GG/F/ E/F/G/=c/ B/c/d A/B/c :| %18
V:2
|: G,2 D,2 E,2 F,2 | .G,.D.B,.G, A,/B,/=C/B,/ .A,C | G,2 D,2 E,2 F,2 | .G,.B, =C2 z .D G,2 :| %4
 .D,.D, D,/C,/D,/B,,/ .A,,G,C,A,, | z B,, z A,, D,A,, D,C,/B,,/ | A,,E,E,D, C,B,,A,,C, | %7
 .E,2 .B,,2 A,,A,,B,,C, | .D,.D, D,/C,/D,/B,,/ .A,,G,C,A,, | z B,, z A,, A,,^G,, A,,2 | %10
 E,G,F,D, E,3 D, | E,G,F,D, E,4 | G,B,A,F, G,3 F, | G,B,A,F, G,4 | E,G,F,D, E,3 D, | E,G,F,D, E,4 | %16
 G,B,A,F, G,3 F, | G,B, A,/B,/=C/E/ .D.G, F,2 :| %18

